X:894
T:Reel 894
M:4/4
K:Emin
L:1/8
BA|GE (3EEE d2cA|FDDE FGAF|BEEF GABc|dBAF GEE:|A|GFGB d2dB|AFDF FDD2|GFEF GABe|dBAF BEE2|GFGB d2dB|AFDE FDD2|GFGA B2eB|dBAF FEE|
